X:1
T:title
M:4/4
Q:120
L:1/8
R:Reel
K:C
a4b' _E3 |  _f'3 ^c' ^f' _d'2 ^b' |  _E _a' _d'B3 ^C _c | e' ^g'a'3aa'a |  _f _e'3 _G _G3 |  ^d'2 _a ^a'A4 |  ^F3 ^f'2 _g'2c | b4a4 | 